dist/assets/img/first/icon1.svg

<svg width="69" height="69" viewBox="0 0 69 69" fill="none" xmlns="http://www.w3.org/2000/svg">
<path d="M11.8594 37.7344H20.4844V47.4375H11.8594V37.7344Z" fill="#FFA912"/>
<path d="M25.7324 47.7651L19.4062 46.3594V37.7344H12.9375V46.3594L6.61133 47.7651C5.6535 47.978 4.79689 48.5111 4.18293 49.2765C3.56897 50.0419 3.23437 50.9937 3.23438 51.9749V65.7656H29.1094V51.9749C29.1094 50.9937 28.7748 50.0419 28.1608 49.2765C27.5469 48.5111 26.6903 47.978 25.7324 47.7651Z" fill="#FEC9A3"/>
<path d="M19.4062 44.4088V37.7344H12.9375V44.4088C13.9196 44.9802 15.0356 45.2812 16.1719 45.2812C17.3081 45.2812 18.4241 44.9802 19.4062 44.4088Z" fill="#FEB784"/>
<path d="M22.6406 33.4219V36.6562C22.6406 38.3719 21.9591 40.0172 20.746 41.2303C19.5328 42.4435 17.8875 43.125 16.1719 43.125C14.4563 43.125 12.8109 42.4435 11.5978 41.2303C10.3847 40.0172 9.70312 38.3719 9.70312 36.6562V33.4219C9.70312 31.7063 10.3847 30.0609 11.5978 28.8478C12.8109 27.6347 14.4563 26.9531 16.1719 26.9531C17.8875 26.9531 19.5328 27.6347 20.746 28.8478C21.9591 30.0609 22.6406 31.7063 22.6406 33.4219Z" fill="#FEC9A3"/>
<path d="M22.6405 33.4218V36.6562C22.6406 38.1833 22.1004 39.6612 21.1155 40.8283C20.1307 41.9955 18.7647 42.7765 17.2593 43.0333C18.5177 41.6103 19.211 39.7754 19.208 37.8758V32.2022C19.211 30.3025 18.5177 28.4677 17.2593 27.0447C18.7645 27.3018 20.1303 28.0829 21.1151 29.25C22.0999 30.417 22.6402 31.8948 22.6405 33.4218Z" fill="#FEC093"/>
<path d="M25.7324 47.7651L20.1049 46.5146L16.1719 59.2969L12.2389 46.5146L6.61133 47.7651C5.6535 47.978 4.79689 48.5111 4.18293 49.2765C3.56897 50.0419 3.23437 50.9937 3.23438 51.9749V65.7657H29.1094V51.9749C29.1094 50.9937 28.7748 50.0419 28.1608 49.2765C27.5469 48.5111 26.6903 47.978 25.7324 47.7651Z" fill="#425B82"/>
<path d="M10.7811 65.7656H8.62485V64.0937C6.11012 61.7105 5.74585 58.1356 7.80575 55.4124L9.52509 56.7126C8.06099 58.6487 8.41691 61.1435 10.391 62.7792C10.513 62.8803 10.6113 63.0072 10.6787 63.1507C10.7462 63.2942 10.7811 63.4508 10.7811 63.6093V65.7656Z" fill="#3C5174"/>
<path d="M23.7187 65.7656H21.5625V63.6093C21.5626 63.4507 21.5976 63.2941 21.6652 63.1506C21.7327 63.0071 21.8311 62.8803 21.9533 62.7792C23.9274 61.1435 24.2833 58.6487 22.8192 56.7126L24.5385 55.4124C26.5984 58.1356 26.2342 61.7105 23.7194 64.0937L23.7187 65.7656Z" fill="#3C5174"/>
<path d="M12.2412 46.5391L8.625 50.6719L11.8594 52.8282L10.7812 54.9844L16.1719 59.2969L12.2412 46.5391Z" fill="#49648E"/>
<path d="M20.1026 46.5391L23.7188 50.6719L20.4844 52.8282L21.5625 54.9844L16.1719 59.2969L20.1026 46.5391Z" fill="#49648E"/>
<path d="M24.7969 32.3437V43.125C24.797 43.6914 24.6856 44.2522 24.4689 44.7755C24.2523 45.2988 23.9346 45.7743 23.5341 46.1748C23.1336 46.5752 22.6582 46.8929 22.1349 47.1096C21.6116 47.3262 21.0507 47.4377 20.4844 47.4375V30.1875L16.1719 28.0312L11.8594 30.1875V47.4375C10.7156 47.4375 9.61873 46.9831 8.80998 46.1744C8.00123 45.3656 7.54688 44.2687 7.54688 43.125V32.3437C7.54648 30.2427 8.31303 28.2138 9.70259 26.6378C11.0922 25.0619 13.0092 24.0474 15.0938 23.7848C15.8098 23.6967 16.5339 23.6967 17.25 23.7848C19.3344 24.0479 21.2511 25.0625 22.6406 26.6383C24.0301 28.2142 24.7968 30.2428 24.7969 32.3437Z" fill="#FFB531"/>
<path d="M17.25 23.7848V28.5703L16.1719 28.0312L15.0938 28.5703V23.7848C15.8098 23.6967 16.5339 23.6967 17.25 23.7848Z" fill="#F7A116"/>
<path d="M54.9844 46.3594V37.7344H46.3594V46.3594L41.001 47.6989C40.0679 47.9322 39.2396 48.4707 38.6477 49.2287C38.0558 49.9868 37.7344 50.921 37.7344 51.8827V65.7656H63.6094V51.8827C63.6094 50.921 63.2879 49.9868 62.696 49.2287C62.1041 48.4707 61.2758 47.9322 60.3428 47.6989L54.9844 46.3594Z" fill="#FEC9A3"/>
<path d="M54.9844 46.3594L50.6719 48.5156L46.3594 46.3594L41.001 47.6989C40.0679 47.9322 39.2396 48.4707 38.6477 49.2287C38.0558 49.9868 37.7344 50.921 37.7344 51.8827V65.7656H63.6094V51.8827C63.6094 50.921 63.2879 49.9868 62.696 49.2287C62.1041 48.4707 61.2758 47.9322 60.3428 47.6989L54.9844 46.3594Z" fill="#C7C7C5"/>
<path d="M54.9844 43.6244V37.7344H46.3594V43.6236C47.5425 44.6902 49.0789 45.2805 50.6719 45.2805C52.2648 45.2805 53.8012 44.6902 54.9844 43.6236V43.6244Z" fill="#FEB784"/>
<path d="M60.3428 47.6989L54.9844 46.3594L50.6719 63.6094L46.3594 46.3594L41.001 47.6989C40.0679 47.9322 39.2396 48.4707 38.6477 49.2287C38.0558 49.9868 37.7344 50.921 37.7344 51.8827V65.7656H63.6094V51.8827C63.6094 50.921 63.2879 49.9868 62.696 49.2287C62.1041 48.4707 61.2758 47.9322 60.3428 47.6989Z" fill="#425B82"/>
<path d="M57.1406 33.4219V36.6562C57.1407 38.337 56.4865 39.9518 55.3165 41.1586C54.1465 42.3653 52.5527 43.0691 50.8727 43.121C50.8066 43.1237 50.7393 43.125 50.6719 43.125C48.9563 43.125 47.3109 42.4435 46.0978 41.2303C44.8847 40.0172 44.2031 38.3719 44.2031 36.6562V33.4219C44.2031 31.7063 44.8847 30.0609 46.0978 28.8478C47.3109 27.6347 48.9563 26.9531 50.6719 26.9531C52.3875 26.9531 54.0328 27.6347 55.246 28.8478C56.4591 30.0609 57.1406 31.7063 57.1406 33.4219Z" fill="#FEC9A3"/>
<path d="M42.0469 54.9844H44.2031V65.7656H42.0469V54.9844Z" fill="#3C5174"/>
<path d="M57.1406 54.9844H59.2969V65.7656H57.1406V54.9844Z" fill="#3C5174"/>
<path d="M57.1405 33.4218V36.6562C57.1406 38.337 56.4864 39.9518 55.3164 41.1585C54.1464 42.3653 52.5526 43.0691 50.8726 43.1209C51.6978 42.3348 52.3545 41.389 52.8028 40.3412C53.2511 39.2933 53.4816 38.1652 53.4803 37.0255V30.8963C53.4818 29.6395 53.2014 28.3984 52.6596 27.2644C53.9612 27.6857 55.0959 28.5085 55.9009 29.6147C56.7059 30.721 57.1399 32.0537 57.1405 33.4218Z" fill="#FEC093"/>
<path d="M57.1406 30.1875C57.1406 29.0438 56.6863 27.9469 55.8775 27.1381C55.0688 26.3294 53.9719 25.875 52.8281 25.875H48.5156C47.3719 25.875 46.275 26.3294 45.4662 27.1381C44.6575 27.9469 44.2031 29.0438 44.2031 30.1875V32.6133L45.0656 32.1281C46.0078 31.5982 46.8631 29.854 47.4375 29.1094C48.3953 29.7479 49.5207 30.0887 50.6719 30.0887C51.823 30.0887 52.9484 29.7479 53.9062 29.1094C54.4981 30.1512 55.1673 32.1532 56.2781 32.8674L57.1406 33.4219V30.6495C57.1341 30.4944 57.1161 30.34 57.0867 30.1875H57.1406Z" fill="#F98500"/>
<path d="M54.9844 46.3594L58.2188 50.6719L54.9844 52.8281L56.0625 54.9844L50.6719 63.6094L54.9844 46.3594Z" fill="#49648E"/>
<path d="M46.3594 46.3594L43.125 50.6719L46.3594 52.8281L45.2812 54.9844L50.6719 63.6094L46.3594 46.3594Z" fill="#49648E"/>
<path d="M50.6719 48.5156L46.3594 46.3594L47.8418 52.2891L50.6719 48.5156Z" fill="#E0E0DE"/>
<path d="M54.9844 46.3594L50.6719 48.5156L53.502 52.2891L54.9844 46.3594Z" fill="#E0E0DE"/>
<path d="M11.8594 33.4219H14.0156V35.5781H11.8594V33.4219Z" fill="#7A432A"/>
<path d="M18.3281 33.4219H20.4844V35.5781H18.3281V33.4219Z" fill="#7A432A"/>
<path d="M46.3594 33.4219H48.5156V35.5781H46.3594V33.4219Z" fill="#7A432A"/>
<path d="M52.8281 33.4219H54.9844V35.5781H52.8281V33.4219Z" fill="#7A432A"/>
<path d="M38.8125 42.0469V33.4219H30.1875V42.0469L22.873 43.5098C21.8954 43.7053 21.0157 44.2335 20.3837 45.0045C19.7516 45.7755 19.4062 46.7416 19.4063 47.7386V65.7656H49.5938V47.7386C49.5938 46.7416 49.2484 45.7755 48.6163 45.0045C47.9843 44.2335 47.1046 43.7053 46.127 43.5098L38.8125 42.0469Z" fill="#FEC9A3"/>
<path d="M38.8125 39.6103V33.4219H30.1875V39.6103C31.4517 40.4945 32.9572 40.9687 34.5 40.9687C36.0428 40.9687 37.5483 40.4945 38.8125 39.6103Z" fill="#FEB784"/>
<path d="M38.8125 42.0469L34.5 46.3594L30.1875 42.0469L22.873 43.5098C21.8954 43.7053 21.0157 44.2335 20.3837 45.0045C19.7516 45.7755 19.4062 46.7416 19.4063 47.7386V65.7656H49.5938V47.7386C49.5938 46.7416 49.2484 45.7755 48.6163 45.0045C47.9843 44.2335 47.1046 43.7053 46.127 43.5098L38.8125 42.0469Z" fill="#E0E0DE"/>
<path d="M34.4999 46.3594L30.1874 40.9688L27.3843 42.6075L31.2655 49.5938L34.4999 46.3594Z" fill="#EBEBE9"/>
<path d="M34.5 46.3594L38.8125 40.9688L41.6156 42.6075L37.7344 49.5938L34.5 46.3594Z" fill="#EBEBE9"/>
<path d="M46.7164 43.6824C39.2254 56.2534 26.158 61.6582 19.4062 64.0661V65.7656H49.5938V47.7384C49.5926 46.8478 49.3153 45.9794 48.7999 45.2529C48.2846 44.5265 47.5566 43.9778 46.7164 43.6824Z" fill="#D6D6D4"/>
<path d="M32.3438 48.5156V65.7656H36.6562V48.5156L34.5 46.3594L32.3438 48.5156Z" fill="#348FD9"/>
<path d="M42.0469 25.875V31.2656C42.0469 33.2672 41.2518 35.1868 39.8364 36.6021C38.4211 38.0174 36.5016 38.8125 34.5 38.8125C34.1656 38.8124 33.8316 38.7903 33.5 38.7465C31.6879 38.5039 30.0253 37.6118 28.8212 36.236C27.6171 34.8601 26.9533 33.094 26.9531 31.2656V25.875C26.9531 23.8734 27.7482 21.9539 29.1636 20.5386C30.5789 19.1232 32.4984 18.3281 34.5 18.3281C35.4911 18.328 36.4725 18.5231 37.3882 18.9023C38.3039 19.2816 39.1359 19.8375 39.8367 20.5383C40.5375 21.2391 41.0934 22.0711 41.4727 22.9868C41.8519 23.9025 42.047 24.8839 42.0469 25.875Z" fill="#FEC9A3"/>
<path d="M42.0468 25.8749V31.2656C42.0468 33.2671 41.2517 35.1867 39.8364 36.602C38.4211 38.0173 36.5015 38.8124 34.5 38.8124C34.1656 38.8123 33.8315 38.7903 33.5 38.7464C34.701 37.846 35.6757 36.6781 36.3466 35.3354C37.0175 33.9926 37.3663 32.5119 37.3651 31.0109V23.9734C37.3681 21.981 36.7526 20.0367 35.6037 18.4089C37.3946 18.6737 39.0306 19.5734 40.2134 20.944C41.3962 22.3145 42.0469 24.0646 42.0468 25.8749Z" fill="#FEC093"/>
<path d="M27.8156 25.2281L26.9531 25.875V22.6406C26.9531 21.4969 27.4075 20.4 28.2162 19.5912C29.025 18.7825 30.1219 18.3281 31.2656 18.3281C31.2656 19.6671 30.9539 20.9877 30.3551 22.1853C29.7562 23.383 28.8868 24.4247 27.8156 25.2281Z" fill="#95573A"/>
<path d="M41.1844 25.1357L42.0469 25.875V22.1785C42.0469 19.4562 40.1161 17.25 37.7344 17.25C37.7344 20.3526 39.0125 23.274 41.1844 25.1357Z" fill="#95573A"/>
<path d="M26.9531 16.1719H36.6562C38.0859 16.1719 39.4571 16.7398 40.468 17.7508C41.4789 18.7617 42.0469 20.1328 42.0469 21.5625H30.1875C29.3297 21.5625 28.507 21.2217 27.9005 20.6152C27.2939 20.0086 26.9531 19.1859 26.9531 18.3281V16.1719Z" fill="#8F4D2E"/>
<path d="M30.1875 26.9531H32.3438V29.1094H30.1875V26.9531Z" fill="#7A432A"/>
<path d="M36.6562 26.9531H38.8125V29.1094H36.6562V26.9531Z" fill="#7A432A"/>
<path d="M24.7969 50.6719H26.9531V65.7656H24.7969V50.6719Z" fill="#BFBFBD"/>
<path d="M42.0469 50.6719H44.2031V65.7656H42.0469V50.6719Z" fill="#BFBFBD"/>
<path d="M34.5 46.3594L32.3438 48.5156V50.6719L34.5 48.5156L36.6562 50.6719V48.5156L34.5 46.3594Z" fill="#3086CD"/>
</svg>

<svg width="69" height="69" fill="none" xmlns="http://www.w3.org/2000/svg"><path d="M11.86 37.734h8.624v9.703H11.86v-9.703z" fill="#FFA912"/><path d="M25.732 47.765l-6.326-1.406v-8.625h-6.468v8.625L6.61 47.765a4.313 4.313 0 00-3.377 4.21v13.79H29.11v-13.79a4.312 4.312 0 00-3.377-4.21z" fill="#FEC9A3"/><path d="M19.406 44.409v-6.675h-6.468v6.675a6.432 6.432 0 006.468 0z" fill="#FEB784"/><path d="M22.64 33.422v3.234a6.469 6.469 0 11-12.937 0v-3.234a6.469 6.469 0 0112.938 0z" fill="#FEC9A3"/><path d="M22.64 33.422v3.234a6.468 6.468 0 01-5.38 6.377 7.767 7.767 0 001.948-5.157v-5.674a7.767 7.767 0 00-1.949-5.157 6.47 6.47 0 015.381 6.377z" fill="#FEC093"/><path d="M25.732 47.765l-5.627-1.25-3.933 12.782-3.933-12.782-5.628 1.25a4.313 4.313 0 00-3.377 4.21v13.79H29.11v-13.79a4.312 4.312 0 00-3.377-4.21z" fill="#425B82"/><path d="M10.781 65.766H8.625v-1.672c-2.515-2.383-2.88-5.958-.82-8.682l1.72 1.3c-1.464 1.937-1.108 4.431.866 6.067a1.078 1.078 0 01.39.83v2.157zm12.938 0h-2.157v-2.157a1.078 1.078 0 01.391-.83c1.974-1.636 2.33-4.13.866-6.066l1.72-1.3c2.06 2.723 1.695 6.298-.82 8.68v1.673z" fill="#3C5174"/><path d="M12.241 46.54l-3.616 4.132 3.234 2.156-1.078 2.156 5.39 4.313-3.93-12.758zm7.862 0l3.616 4.132-3.235 2.156 1.078 2.156-5.39 4.313 3.93-12.758z" fill="#49648E"/><path d="M24.797 32.344v10.781a4.312 4.312 0 01-4.313 4.313v-17.25l-4.312-2.157-4.313 2.157v17.25a4.313 4.313 0 01-4.312-4.313V32.344a8.625 8.625 0 1117.25 0z" fill="#FFB531"/><path d="M17.25 23.785v4.785l-1.078-.539-1.078.54v-4.786a8.828 8.828 0 012.156 0z" fill="#F7A116"/><path d="M54.984 46.36v-8.626H46.36v8.625l-5.358 1.34a4.313 4.313 0 00-3.267 4.184v13.883H63.61V51.883a4.313 4.313 0 00-3.266-4.184l-5.359-1.34z" fill="#FEC9A3"/><path d="M54.984 46.36l-4.312 2.156-4.313-2.157-5.358 1.34a4.313 4.313 0 00-3.267 4.184v13.883H63.61V51.883a4.313 4.313 0 00-3.266-4.184l-5.359-1.34z" fill="#C7C7C5"/><path d="M54.984 43.624v-5.89H46.36v5.89a6.44 6.44 0 008.625 0z" fill="#FEB784"/><path d="M60.343 47.699l-5.359-1.34-4.312 17.25-4.313-17.25-5.358 1.34a4.313 4.313 0 00-3.267 4.184v13.883H63.61V51.883a4.313 4.313 0 00-3.266-4.184z" fill="#425B82"/><path d="M57.14 33.422v3.234a6.468 6.468 0 11-12.937 0v-3.234a6.469 6.469 0 0112.938 0z" fill="#FEC9A3"/><path d="M42.047 54.984h2.156v10.782h-2.156V54.984zm15.093 0h2.157v10.782H57.14V54.984z" fill="#3C5174"/><path d="M57.14 33.422v3.234a6.467 6.467 0 01-6.267 6.465 8.406 8.406 0 002.607-6.096v-6.129a8.401 8.401 0 00-.82-3.632 6.475 6.475 0 014.48 6.158z" fill="#FEC093"/><path d="M57.14 30.188a4.312 4.312 0 00-4.312-4.313h-4.312a4.313 4.313 0 00-4.313 4.313v2.425l.863-.485c.942-.53 1.797-2.274 2.371-3.019a5.831 5.831 0 006.47 0c.591 1.042 1.26 3.044 2.371 3.758l.863.555V30.65a3.133 3.133 0 00-.054-.462h.054z" fill="#F98500"/><path d="M54.984 46.36l3.235 4.312-3.235 2.156 1.078 2.156-5.39 8.625 4.312-17.25zm-8.624 0l-3.235 4.312 3.234 2.156-1.078 2.156 5.39 8.625-4.312-17.25z" fill="#49648E"/><path d="M50.672 48.516l-4.313-2.157 1.483 5.93 2.83-3.773zm4.312-2.156l-4.312 2.156 2.83 3.773 1.482-5.93z" fill="#E0E0DE"/><path d="M11.86 33.422h2.156v2.156h-2.157v-2.156zm6.468 0h2.156v2.156h-2.156v-2.156zm28.032 0h2.156v2.156h-2.157v-2.156zm6.468 0h2.156v2.156h-2.156v-2.156z" fill="#7A432A"/><path d="M38.813 42.047v-8.625h-8.626v8.625l-7.314 1.463a4.312 4.312 0 00-3.467 4.229v18.027h30.188V47.739a4.312 4.312 0 00-3.467-4.23l-7.315-1.462z" fill="#FEC9A3"/><path d="M38.813 39.61v-6.188h-8.626v6.188a7.524 7.524 0 008.625 0z" fill="#FEB784"/><path d="M38.813 42.047L34.5 46.359l-4.313-4.312-7.314 1.463a4.312 4.312 0 00-3.467 4.229v18.027h30.188V47.739a4.312 4.312 0 00-3.467-4.23l-7.315-1.462z" fill="#E0E0DE"/><path d="M34.5 46.36l-4.313-5.391-2.803 1.639 3.881 6.986 3.235-3.235zm0 0l4.313-5.391 2.803 1.639-3.882 6.986-3.234-3.235z" fill="#EBEBE9"/><path d="M46.716 43.682c-7.49 12.571-20.558 17.976-27.31 20.384v1.7h30.188V47.738a4.306 4.306 0 00-2.878-4.056z" fill="#D6D6D4"/><path d="M32.344 48.516v17.25h4.312v-17.25L34.5 46.359l-2.156 2.157z" fill="#348FD9"/><path d="M42.047 25.875v5.39a7.547 7.547 0 11-15.094 0v-5.39a7.546 7.546 0 1115.094 0z" fill="#FEC9A3"/><path d="M42.047 25.875v5.39a7.547 7.547 0 01-8.547 7.481 9.66 9.66 0 003.865-7.735v-7.038a9.625 9.625 0 00-1.761-5.564 7.547 7.547 0 016.443 7.466z" fill="#FEC093"/><path d="M27.816 25.228l-.863.647v-3.234a4.313 4.313 0 014.313-4.313 8.625 8.625 0 01-3.45 6.9zm13.368-.092l.863.739v-3.697c0-2.722-1.93-4.928-4.313-4.928 0 3.103 1.279 6.024 3.45 7.886z" fill="#95573A"/><path d="M26.953 16.172h9.703a5.39 5.39 0 015.39 5.39H30.189a3.234 3.234 0 01-3.235-3.234v-2.156z" fill="#8F4D2E"/><path d="M30.188 26.953h2.156v2.156h-2.157v-2.156zm6.468 0h2.157v2.156h-2.157v-2.156z" fill="#7A432A"/><path d="M24.797 50.672h2.156v15.094h-2.156V50.672zm17.25 0h2.156v15.094h-2.156V50.672z" fill="#BFBFBD"/><path d="M34.5 46.36l-2.156 2.156v2.156l2.156-2.156 2.156 2.156v-2.156L34.5 46.359z" fill="#3086CD"/></svg>
